icon/pk/universal.svg

<svg viewBox="0 0 48 48" fill="none" xmlns="http://www.w3.org/2000/svg" height="1em" width="1em">
  <path d="M24 38C31.732 38 38 31.732 38 24C38 16.268 31.732 10 24 10C16.268 10 10 16.268 10 24C10 31.732 16.268 38 24 38Z" fill="#2F88FF" stroke="black" stroke-width="4"/>
  <path d="M11 29C12.5089 29.6244 15 30 16.2586 28.5317C17.5171 27.0633 16.395 24.7522 17.7889 23.9682C19.317 23.1086 20.4203 26.0319 23.2912 25.516C26.162 25 28 21 28 19C28 17 26.2854 17 26.162 15.0542C26 12.5 28 11 28 11" stroke="white" stroke-width="4" stroke-linecap="round"/>
  <path d="M27.9995 37C26.9137 36.091 25.9995 35.5 26.0001 34C26.0006 32.5 26.9995 33 27.9995 32C28.9996 31 28.4995 29 29.4999 28.5C30.5004 28 33.6075 29.0558 35.9998 31" stroke="white" stroke-width="4" stroke-linecap="round"/>
  <circle cx="24" cy="4" r="2" fill="black"/>
  <circle cx="24" cy="44" r="2" fill="black"/>
  <circle cx="44" cy="24" r="2" fill="black"/>
  <circle cx="38" cy="10" r="2" fill="black"/>
  <circle cx="10" cy="38" r="2" fill="black"/>
  <circle cx="4" cy="24" r="2" fill="black"/>
  <circle cx="10" cy="10" r="2" fill="black"/>
  <circle cx="38" cy="38" r="2" fill="black"/>
  <path d="M10 24C10 27.8146 11.5256 31.2729 14 33.798" stroke="black" stroke-width="4" stroke-linecap="round" stroke-linejoin="round"/>
  <path d="M24 38C31.732 38 38 31.732 38 24" stroke="black" stroke-width="4" stroke-linecap="round" stroke-linejoin="round"/>
  <path d="M24 10C27.8146 10 31.2729 11.5256 33.798 14" stroke="black" stroke-width="4" stroke-linecap="round" stroke-linejoin="round"/>
</svg>

<svg width="48" height="48" fill="none" xmlns="http://www.w3.org/2000/svg"><path d="M24 38c7.732 0 14-6.268 14-14s-6.268-14-14-14-14 6.268-14 14 6.268 14 14 14Z" fill="#2F88FF" stroke="#000" stroke-width="4"/><path d="M11 29c1.509.624 4 1 5.259-.468 1.258-1.469.136-3.78 1.53-4.564 1.528-.86 2.631 2.064 5.502 1.548S28 21 28 19s-1.715-2-1.838-3.946C26 12.5 28 11 28 11M28 37c-1.086-.909-2-1.5-2-3s1-1 2-2 .5-3 1.5-3.5 4.108.556 6.5 2.5" stroke="#fff" stroke-width="4" stroke-linecap="round"/><circle cx="24" cy="4" r="2" fill="#000"/><circle cx="24" cy="44" r="2" fill="#000"/><circle cx="44" cy="24" r="2" fill="#000"/><circle cx="38" cy="10" r="2" fill="#000"/><circle cx="10" cy="38" r="2" fill="#000"/><circle cx="4" cy="24" r="2" fill="#000"/><circle cx="10" cy="10" r="2" fill="#000"/><circle cx="38" cy="38" r="2" fill="#000"/><path d="M10 24c0 3.815 1.526 7.273 4 9.798M24 38c7.732 0 14-6.268 14-14M24 10c3.815 0 7.273 1.526 9.798 4" stroke="#000" stroke-width="4" stroke-linecap="round" stroke-linejoin="round"/></svg>
